icons/circle/48/phatch-inspector.svg

<svg xmlns="http://www.w3.org/2000/svg" viewBox="0 0 48 48">
 <defs>
  <linearGradient id="linearGradient3764" x1="1" x2="47" gradientUnits="userSpaceOnUse" gradientTransform="matrix(0,-1,1,0,-1.5e-6,47.999998)">
   <stop style="stop-color:#e4e4e4;stop-opacity:1"/>
   <stop offset="1" style="stop-color:#eee;stop-opacity:1"/>
  </linearGradient>
 </defs>
 <g>
  <path d="m 36.31 5 c 5.859 4.062 9.688 10.831 9.688 18.5 c 0 12.426 -10.07 22.5 -22.5 22.5 c -7.669 0 -14.438 -3.828 -18.5 -9.688 c 1.037 1.822 2.306 3.499 3.781 4.969 c 4.085 3.712 9.514 5.969 15.469 5.969 c 12.703 0 23 -10.298 23 -23 c 0 -5.954 -2.256 -11.384 -5.969 -15.469 c -1.469 -1.475 -3.147 -2.744 -4.969 -3.781 z m 4.969 3.781 c 3.854 4.113 6.219 9.637 6.219 15.719 c 0 12.703 -10.297 23 -23 23 c -6.081 0 -11.606 -2.364 -15.719 -6.219 c 4.16 4.144 9.883 6.719 16.219 6.719 c 12.703 0 23 -10.298 23 -23 c 0 -6.335 -2.575 -12.06 -6.719 -16.219 z" style="opacity:0.05"/>
  <path d="m 41.28 8.781 c 3.712 4.085 5.969 9.514 5.969 15.469 c 0 12.703 -10.297 23 -23 23 c -5.954 0 -11.384 -2.256 -15.469 -5.969 c 4.113 3.854 9.637 6.219 15.719 6.219 c 12.703 0 23 -10.298 23 -23 c 0 -6.081 -2.364 -11.606 -6.219 -15.719 z" style="opacity:0.1"/>
  <path d="m 31.25 2.375 c 8.615 3.154 14.75 11.417 14.75 21.13 c 0 12.426 -10.07 22.5 -22.5 22.5 c -9.708 0 -17.971 -6.135 -21.12 -14.75 a 23 23 0 0 0 44.875 -7 a 23 23 0 0 0 -16 -21.875 z" style="opacity:0.2"/>
 </g>
 <g>
  <path d="m 24 1 c 12.703 0 23 10.297 23 23 c 0 12.703 -10.297 23 -23 23 -12.703 0 -23 -10.297 -23 -23 0 -12.703 10.297 -23 23 -23 z" style="fill:url(#linearGradient3764);fill-opacity:1"/>
 </g>
 <g>
  <g>
   <g transform="translate(1,1)">
    <g style="opacity:0.1">
     <!-- color: #eeeeee -->
    </g>
   </g>
  </g>
 </g>
 <g>
  <path d="m 40.03 7.531 c 3.712 4.084 5.969 9.514 5.969 15.469 0 12.703 -10.297 23 -23 23 c -5.954 0 -11.384 -2.256 -15.469 -5.969 4.178 4.291 10.01 6.969 16.469 6.969 c 12.703 0 23 -10.298 23 -23 0 -6.462 -2.677 -12.291 -6.969 -16.469 z" style="opacity:0.1"/>
 </g>
 <g>
  <g transform="translate(2.5e-4,0)">
   <g>
    <!-- color: #eeeeee -->
    <g>
     <path d="m 24.996 17 c -5.116 -0.047 -9.642 3.645 -12.727 7.254 -0.359 0.469 -0.359 1.023 0 1.492 3.34 3.951 7.717 7.268 12.727 7.254 1.433 -0.004 2.849 -0.302 4.209 -0.801 l 3.695 3.57 3.035 -2.969 -2.73 -2.758 c 1.751 -1.241 3.308 -2.74 4.525 -4.297 0.359 -0.469 0.359 -1.023 0 -1.492 l -0.006 0 c -3.36 -3.991 -7.613 -7.206 -12.728 -7.254" style="fill:#000;opacity:0.1;fill-opacity:1;stroke:none;fill-rule:nonzero"/>
     <path d="m 28 31 3.9 3.77 3.036 -2.97 -3.504 -3.538" style="fill:#515151;fill-opacity:1;stroke:none;fill-rule:nonzero"/>
     <path d="m 36.724 23.254 c -3.36 -3.991 -7.612 -7.207 -12.728 -7.254 c -5.116 -0.047 -9.642 3.645 -12.727 7.254 -0.359 0.469 -0.359 1.023 0 1.492 3.34 3.951 7.718 7.268 12.727 7.254 5.01 -0.014 9.814 -3.521 12.734 -7.254 0.359 -0.469 0.359 -1.023 0 -1.492" style="fill:#515151;fill-opacity:1;stroke:none;fill-rule:nonzero"/>
     <path d="m 29.3,30.449 1.156,-1.156 2.551,2.551 L 31.851,33 M 29.3,30.449" style="fill:#84e55b;fill-opacity:1;stroke:none;fill-rule:nonzero"/>
     <path d="m 26.848 27.656 0.809 -0.809 2.551 2.551 -0.809 0.809 m -2.551 -2.551" style="fill:#dedede;fill-opacity:1;stroke:none;fill-rule:nonzero"/>
    </g>
   </g>
  </g>
  <path d="M 24 19 A 5 5 0 0 0 19 24 A 5 5 0 0 0 24 29 A 5 5 0 0 0 29 24 A 5 5 0 0 0 24 19 z M 24 20 A 4 4 0 0 1 28 24 A 4 4 0 0 1 24 28 A 4 4 0 0 1 20 24 A 4 4 0 0 1 24 20 z" style="fill:#dedede;opacity:1;fill-opacity:1;stroke:none"/>
 </g>
</svg>

<svg xmlns="http://www.w3.org/2000/svg" viewBox="0 0 48 48">
  <defs>
    <linearGradient id="a" x1="1" x2="47" gradientUnits="userSpaceOnUse" gradientTransform="rotate(-90 24 24)">
      <stop stop-color="#e4e4e4"/>
      <stop offset="1" stop-color="#eee"/>
    </linearGradient>
  </defs>
  <path d="M36.31 5c5.859 4.062 9.688 10.831 9.688 18.5 0 12.426-10.07 22.5-22.5 22.5-7.669 0-14.438-3.828-18.5-9.688a23.24 23.24 0 0 0 3.781 4.969 22.923 22.923 0 0 0 15.469 5.969c12.703 0 23-10.298 23-23a22.92 22.92 0 0 0-5.969-15.469A23.216 23.216 0 0 0 36.31 5zm4.969 3.781A22.911 22.911 0 0 1 47.498 24.5c0 12.703-10.297 23-23 23a22.909 22.909 0 0 1-15.719-6.219C12.939 45.425 18.662 48 24.998 48c12.703 0 23-10.298 23-23 0-6.335-2.575-12.06-6.719-16.219z" opacity=".05"/>
  <path d="M41.28 8.781a22.923 22.923 0 0 1 5.969 15.469c0 12.703-10.297 23-23 23A22.92 22.92 0 0 1 8.78 41.281 22.911 22.911 0 0 0 24.499 47.5c12.703 0 23-10.298 23-23A22.909 22.909 0 0 0 41.28 8.781z" opacity=".1"/>
  <path d="M31.25 2.375C39.865 5.529 46 13.792 46 23.505c0 12.426-10.07 22.5-22.5 22.5-9.708 0-17.971-6.135-21.12-14.75a23 23 0 0 0 44.875-7 23 23 0 0 0-16-21.875z" opacity=".2"/>
  <path d="M24 1c12.703 0 23 10.297 23 23S36.703 47 24 47 1 36.703 1 24 11.297 1 24 1z" fill="url(#a)"/>
  <g>
    <path d="M40.03 7.531A22.922 22.922 0 0 1 45.999 23c0 12.703-10.297 23-23 23A22.92 22.92 0 0 1 7.53 40.031C11.708 44.322 17.54 47 23.999 47c12.703 0 23-10.298 23-23 0-6.462-2.677-12.291-6.969-16.469z" opacity=".1"/>
  </g>
  <g>
    <path d="M24.996 17c-5.116-.047-9.642 3.645-12.727 7.254-.359.469-.359 1.023 0 1.492 3.34 3.951 7.717 7.268 12.727 7.254 1.433-.004 2.85-.302 4.21-.801l3.694 3.57 3.035-2.969-2.73-2.758a21.85 21.85 0 0 0 4.525-4.297c.36-.469.36-1.023 0-1.492h-.006c-3.36-3.991-7.613-7.206-12.728-7.254" opacity=".1"/>
    <path d="M28 31l3.9 3.77 3.036-2.97-3.504-3.538" fill="#515151"/>
    <path d="M36.724 23.254c-3.36-3.991-7.612-7.207-12.728-7.254-5.116-.047-9.642 3.645-12.727 7.254-.359.469-.359 1.023 0 1.492 3.34 3.951 7.718 7.268 12.727 7.254 5.01-.014 9.814-3.521 12.734-7.254.36-.469.36-1.023 0-1.492" fill="#515151"/>
    <path d="M29.3 30.449l1.156-1.156 2.551 2.551L31.851 33m-2.55-2.551" fill="#84e55b"/>
    <path d="M26.848 27.656l.81-.809 2.55 2.551-.809.809m-2.55-2.551" fill="#dedede"/>
    <path d="M24 19a5 5 0 0 0-5 5 5 5 0 0 0 5 5 5 5 0 0 0 5-5 5 5 0 0 0-5-5zm0 1a4 4 0 0 1 4 4 4 4 0 0 1-4 4 4 4 0 0 1-4-4 4 4 0 0 1 4-4z" fill="#dedede"/>
  </g>
</svg>
